neru-light-classic/22x22/actions/account-add.svg

<svg xmlns="http://www.w3.org/2000/svg" width="22" height="22"><defs><style id="current-color-scheme" type="text/css">.ColorScheme-Text{color:#1e333d}</style></defs><path class="ColorScheme-Text" d="M6.5 3C5.669 3 5 3.669 5 4.5V5h12v-.5c0-.831-.669-1.5-1.5-1.5h-9zM5 7v2h12V7H5zm0 4v2h12v-2H5zm0 4v2h8v-1a1 1 0 0 1 1-1H5z" fill="currentColor"/><path class="ColorScheme-Text" d="M5 5v2h12V5H5zm0 4v2h12V9H5zm0 4v2h10v-1a1 1 0 0 1 1-1H5zm0 4v.5c0 .831.669 1.5 1.5 1.5H14a1 1 0 0 1-1-1v-1H5z" opacity=".3" fill="currentColor"/><path class="ColorScheme-Text" d="M15 3v11a1 1 0 0 1 1-1h1V4.5c0-.831-.669-1.5-1.5-1.5H15z" opacity=".3" fill="currentColor"/><path class="ColorScheme-Text" d="M16 14v2h-2v2h2v2h2v-2h2v-2h-2v-2h-2z" fill="currentColor"/></svg>

<svg xmlns="http://www.w3.org/2000/svg" width="22" height="22" version="1.1">
 <defs>
  <style id="current-color-scheme" type="text/css">
   .ColorScheme-Text { color:#1e333d; } .ColorScheme-Highlight { color:#3fb7ff; }
  </style>
 </defs>
 <path style="fill:currentColor" class="ColorScheme-Text" d="M 6.5 3 C 5.669 3 5 3.669 5 4.5 L 5 5 L 17 5 L 17 4.5 C 17 3.669 16.331 3 15.5 3 L 6.5 3 z M 5 7 L 5 9 L 17 9 L 17 7 L 5 7 z M 5 11 L 5 13 L 16 13 L 17 13 L 17 11 L 5 11 z M 5 15 L 5 17 L 13 17 L 13 16 A 1.0001 1.0001 0 0 1 14 15 L 5 15 z"/>
 <path style="opacity:0.3;fill:currentColor" class="ColorScheme-Text" d="M 5 5 L 5 7 L 17 7 L 17 5 L 5 5 z M 5 9 L 5 11 L 17 11 L 17 9 L 5 9 z M 5 13 L 5 15 L 14 15 L 15 15 L 15 14 A 1.0001 1.0001 0 0 1 16 13 L 5 13 z M 5 17 L 5 17.5 C 5 18.331 5.669 19 6.5 19 L 14 19 A 1.0001 1.0001 0 0 1 13 18 L 13 17 L 5 17 z"/>
 <path style="opacity:0.3;fill:currentColor" class="ColorScheme-Text" d="M 15 3 L 15 14 A 1.0001 1.0001 0 0 1 16 13 L 17 13 L 17 11 L 17 9 L 17 7 L 17 5 L 17 4.5 C 17 3.669 16.331 3 15.5 3 L 15 3 z"/>
 <path style="fill:currentColor" class="ColorScheme-Text" d="M 16 14 L 16 16 L 14 16 L 14 18 L 16 18 L 16 20 L 18 20 L 18 18 L 20 18 L 20 16 L 18 16 L 18 14 L 16 14 z"/>
</svg>
